X:1
T:Preciosa
T:Einsam nicht alleine
T:Carl Maria von Weber
T:Pius Alexander Wolff
T:Einsam nicht alleine
T:Nach dem Lied aus der Schauspielmusik zu Preciosa
T:CPDL   —   Creative Commons Attribution Non Commercial 3.0
C:Carl Maria von Weber
Z:Pius Alexander Wolff
Z:CPDL   —   Creative Commons Attribution Non Commercial 3.0
%%score [ ( 1 2 ) ( 3 4 ) ]
L:1/8
Q:1/4=66
M:6/8
K:F
V:1 treble-8 nm="Tenor"
V:2 treble-8 
V:3 bass nm="Bass"
V:4 bass 
V:1
!p!"^Langsam" c2 A f2 c | B2 G g2 c | cff fec | ca g/f/ (f e2) |!<(! c2 f!<)!!>(! g>f d/B/!>)! | %5
w: 1. Ein- sam bin ich|nicht al- lei- ne,|denn * es schwebt * ja|süß * und * mild *|um mich her * im *|
w: 2. Was ich den- ke,|was ich trei- be|zwi- * schen Freu- * de,|Lust * und * Schmerz, *|wo ich wand- * le, *|
w: 3. Un- er- reich- bar|wie die Ster- ne|won- * ne- bli- * ckend|wie * ihr * Glanz, *|bist du nah, * doch *|
!<(! =B2 g!<)!!>(! a>g e/c/!>)! |!>(! ag/f/ e/d/ c2!>)! A | G2 d/c/ (B2 A) | %8
w: Mon- den- schei- * ne *|dein _ _ ge- * lieb- tes,|teu- res * Bild, _|
w: wo ich blei- * be, *|e- * * wig * nur bei|dir, mein * Herz, _|
w: ach! so fer- * ne, *|fül- * * lest * mir die|See- le * ganz, _|
!<(! Acf!<)! a>!>(!f c/A/!>)! |!>(! c>B A/G/!>)! F2 z |] %10
w: dein * ge- lieb- * tes, *|teu- * res * Bild.|
w: e- * wig nur * bei *|dir, * mein * Herz!|
w: fül- * lest mir * die *|See- * le * ganz!|
V:2
 A2 F A2 A | G2 G B2 B | A2 c c2 B | Afc c3 | A2 c d2 B | G2 =B c2 _B | Ac c/B/ A2 F | %7
 E2 B/A/ (G2 F) | A2 c c>AF | G2 A/B/ A2 x |] %10
V:3
!p! F,2 F, C,2 F, | E,2 E, E,2 G, | F,2 A, A,G,E, | F,C B,/A,/ (A, G,2) | %4
!<(! F,2 A,!<)!!>(! B,2 F,!>)! |!<(! F,2 F,!<)!!>(! E,2 E,!>)! |!>(! CB,/A,/ G,/F,/ F,2!>)! F, | %7
 C,2 E, (E,2 F,) |!<(! F,2 F,!<)! F,2!>(! F,!>)! |!>(! E,2 E,!>)! C,2 z |] %10
V:4
 F,,2 F,, F,,2 F,, | C,2 C, C,2 E, | F,2 F, C,2 C, | C,2 C, C,3 | F,,2 F,, B,,2 B,, | %5
 G,,2 G,, C,2 C, | F,2 B,, C,2 C, | C,2 C, (C,2 F,) | F,C,A,, F,,2 A,,/D,/ | C,2 C, F,,2 x |] %10

